X: 310
T: Fengyang huagu
L: 1/8
M: 2/4
K: F
c df2 [I:setbarnb 1]| 
f dc2 | 
c df2 | 
f dc2 | 
cc2d | 
c2c2 | 
f c A G | 
F4 | 
A G A/ A/ A/ G/ | 
A FG2 | 
c c c A | 
c4 | 
cc2d | 
f2c2 | 
f c A G | 
F A G D | 
F4 |]

@@@ Tune index: 9184
